X:1
T:Lord Rendal
M:3/4
L:1/4
K:G
 D| G G G/2A/2| G G G| A A A| A2G/2-A/2| B B B/2c/2| B A G| AG/2-F/2 E|\
 D2 D| B2 A/2G/2| c/2 c3/2 B/2A/2| BG/2-F/2 E| D2 D/2B,/2| C DE/2-F/2|\
 G F D|E/2-F/2 G F| G2||
